X:1
T:Missa Re la fa sol la - Kyrie
T:Missa Re la fa sol la - Kyrie
T:André Vierendeels (28/04/12)
C:André Vierendeels
C:(28/04/12)
%%score [ 1 2 3 4 ]
L:1/8
Q:1/4=120
M:2/2
K:F
V:1 treble nm="Soprano" snm="S"
V:2 treble nm="Alto" snm="A"
V:3 treble-8 nm="Tenor" snm="T"
V:4 bass nm="Bass" snm="B"
V:1
 d8 | A8 | F8 | G8 | A8 | A8 | z8 | z8 | d8 | A8 | F8 | G8 | A8 | =B4 c4 | d8 | c8 | d8 | A8 | F8 | %19
w: Ky-|ri-|e,|e-|lei-|son.|||Chri-||ste,|e-|lei-|||son.|Ky-|ry-|e,|
 G8 | A8- | A8 | G8 | F4 G4 | A4 G4- | G4 F2 E2 | F4 A2 G2 | F8 |] %28
w: e-|lei-|||||||son.|
V:2
 z8 | D8 | A8 | E8 | E8 | F8 | G8 | E8 | z8 | D8 | A8 | E8 | E8 | G4 E4 | F4 D4 | E8 | z8 | D8 | %18
w: |Ky-|ri-|e,|e-|lei-||son.||Chri-|ste|e-|lei-|||son.||Ky-|
 A8 | D8 | G4 F4 | E8- | E8 | D4 C4 | F4 G4 | D6 E2 | D2 C2 E4 | D8 |] %28
w: ri-|e,|e- *|lei-||||||son.|
V:3
 z8 | z8 | d8 | =B8 | c8 | d8 | =B8 | c8 | z8 | z8 | d8 | e4 =B4 | c8 | d4 c4 | A4 F4 | A8 | z8 | %17
w: ||Ky-|ri-|e,|e-|lei-|son.|||Chri-|ste e-|lei-|||son.||
 z8 | d8 | B8 | d8 | c8 | =B4 c4 | A4 c4- | c8 | B8 | A4 c4 | A8 |] %28
w: |Ky-||e,|e-|lei- *|||||son.|
V:4
 z8 | z8 | z4 D,4 | E,8 | A,8 | D,8 | E,8 | A,8 | z8 | z8 | z4 D,4 | C,4 E,4 | A,8 | G,4 A,4 | %14
w: ||Ky-|ri-|e,|e-|lei-|son.|||Chri-|ste e-|lei-||
 D,8 | A,8 | z8 | z8 | z4 D,4 | G,8 | D,8 | A,8 | E,4 C,4 | D,4 E,4 | F,4 C,4 | G,8 | D,4 A,4 | %27
w: |son.|||Ky-|ri-|e,|e-|lei- *|||||
 D,8 |] %28
w: son|

